!!!COM: Bartók, Béla
!!!OTL: String Quartet No. 4
!!!OMV: I: Allegro
!!!example: 341
!!!work: Bar-37
**kern	**dynam	**kern	**dynam	**kern	**dynam	**kern	**dynam
*part4	*part4	*part3	*part3	*part2	*part2	*part1	*part1
*staff4	*	*staff3	*	*staff2	*	*staff1	*
*I"Violoncello	*	*I"Viola	*	*I"Violin II	*	*I"Violin I	*
*I'Vc.	*	*I'Vla.	*	*I'Vln. II	*	*I'Vln. I	*
*clefF4	*	*clefC3	*	*clefG2	*	*clefG2	*
*k[]	*	*k[]	*	*k[]	*	*k[]	*
*	*	*	*	*	*	*	*
*M4/4	*	*M4/4	*	*M4/4	*	*M4/4	*
*MM121	*	*MM121	*	*MM121	*	*MM121	*
=14	=	=	=	=	=	=	=
2r	.	(8CL	pp	1r	.	1r	.
.	.	8dJ	.	.	.	.	.
.	.	8E 8ee	.	.	.	.	.
.	.	4d)	.	.	.	.	.
(8GG#XL	p	.	.	.	.	.	.
8AA#X	.	(8CL	.	.	.	.	.
8BB	.	8d	.	.	.	.	.
[8AA#J	.	8EJ	.	.	.	.	.
=15	=15	=15	=15	=15	=15	=15	=15
8AA#L]	.	4d)	.	2r	.	1r	.
8GG#X	.	.	.	.	.	.	.
8DD#X)	.	(8CL	.	.	.	.	.
(8GG#J	.	8dJ	.	.	.	.	.
4AA#X	.	8E	.	4r	.	.	.
.	.	4d)	.	.	.	.	.
4BB	.	.	.	8r	.	.	.
.	.	(8C	.	(8c#X	p	.	.
=16	=16	=16	=16	=16	=16	=16	=16
8AA#XL	.	8dL	.	8d#XL	.	1r	.
8GG#X	.	8EJ	.	8f#XJ)	.	.	.
8DD#X)	.	4d)	.	(8gn^	.	.	.
(8GG#J	.	.	.	4f#	.	.	.
4AA#	.	(8CL	.	.	.	.	.
.	.	8d	.	8d#L)	.	.	.
4BB	.	8E	.	(8c#X	.	.	.
.	.	[8dJ	.	8d#J	.	.	.
=17	=17	=17	=17	=17	=17	=17	=17
!!linebreak:original
8AA#XL	.	8dL])	.	8gL)	.	(8g#XL	p
8GG#X	.	(8C	.	8f#X~	.	8a#X	.
8DD#X)	.	8d	.	(8c#X	.	8cc#X)	.
(8GG#J	.	8EJ	.	8d#XJ	.	(8ddn^J	.
8AA#	.	4d)	.	8f#L)	.	4cc#	.
4BB	.	.	.	(8g^J	.	.	.
.	.	(8CL	.	4f#	.	8a#L)	.
8DD#)	.	8dJ	.	.	.	(8g#J	.
=18	=18	=18	=18	=18	=18	=18	=18
(8GG#XL	.	8EL	.	8d#XL)	.	8a#XL	.
8AA#XJ	.	[8d	.	(8c#X	.	8dd)	.
4BB	.	8d])	.	8d#	.	8cc#X~	.
.	.	(8CJ	.	8gJ)	.	(8g#XJ	.
4GG#	.	8dL	.	8f#X~L	.	8a#L	.
.	.	8E	.	(8c#	.	8cc#)	.
8CC#XL)	.	8d)	.	8d#	.	(8dd^	.
*	*	*clefG2	*	*	*	*	*
(8CC#J	.	(8ddJ	p	8f#J)	.	[8cc#J	.
=19	=19	=19	=19	=19	=19	=19	=19
4D	.	8eeL	.	(8g	.	8cc#L])	.
.	.	8ggJ)	.	4f#X	.	(8g#X	.
4EE 4e	.	(8aa-X	.	.	.	8a#X	.
.	.	4gg	.	4d#X	.	8ddJ	.
8D)	.	.	.	.	.	8cc#XL)	.
(4CC	.	8eeL)	.	4c#X	.	(8g#	.
.	.	(8dd	.	.	.	8a#	.
8D	.	8eeJ	.	8B-X)	.	8cc#J	.
=20	=20	=20	=20	=20	=20	=20	=20
8EEL)	.	8aa-XL)	.	4.B-X	.	8ddL)	.
(8CCJ	.	(8ddd-XJ	.	.	.	(8g#X	.
8D	.	8aa-	.	.	.	8a#X	.
4EE)	.	4gg)	.	(8g	.	8cc#XJ)	.
.	.	.	.	4f#X	.	(8dd^	.
*	*	*clefC3	*	*	*	*	*
(8CCL	.	(8dL	.	.	.	4cc#)	.
8D	.	8e	.	4d#X	.	.	.
8EEJ	.	8gJ)	.	.	.	(8g#	.
=21	=21	=21	=21	=21	=21	=21	=21
!!linebreak:original
4D	.	(4a-X	.	8c#X	.	8a#XL	.
.	.	.	.	4.B-X)	.	8cc#XJ)	.
8EEL)	.	8dd-X	.	.	.	(4dd	.
(8CCJ	.	[4.a-	.	.	.	.	.
8DL	.	.	.	(8c#	.	8ggL	.
8EEJ	.	.	.	4.B-)	.	8ddJ	.
4D)	.	8a-L]	.	.	.	4cc#)	.
.	.	8gJ)	.	.	.	.	.
=22	=22	=22	=22	=22	=22	=22	=22
(8CC	.	8r	.	1B-X	.	(8dL	.
4D	.	(8G#X	.	.	.	8gJ)	.
.	.	8c#X)	.	.	.	(4a-X	.
4EE)	.	4.d	.	.	.	.	.
.	.	.	.	.	.	8dd-XL	.
(8CCL	.	.	.	.	.	8a-J	.
8D	.	(8G#L	.	.	.	[4g	.
8EEJ)	.	8c#J)	.	.	.	.	.
=23	=23	=23	=23	=23	=23	=23	=23
(4CC	.	4d	.	[1B-X	.	8gL]	.
.	.	.	.	.	.	8a-XJ)	.
8DL	.	4G#X	<	.	.	(8g	<
8EEJ)	.	.	.	.	.	4d)	.
(8CCL	.	4c#X	.	.	.	.	.
8D	.	.	.	.	.	4g	.
8EE)	.	4G#	.	.	.	.	.
(8CCJ	.	.	.	.	.	(8d	.
=24	=24	=24	=24	=24	=24	=24	=24
8DL	.	4c#X	.	4.B-]	.	8f)	.
8EE)	.	.	.	.	.	4d	.
(8CC	.	4B-X	.	.	.	.	.
8DJ	.	.	.	8r	.	4e	.
8EE)	.	4Cn 4c#X	.	4r	.	.	.
8r	.	.	.	.	.	([8dL	.
8r	.	8B- 8cn	.	8r	.	8dJ]) 8e	.
[8c#X	pp	8r	[	[8Bn [8d#X	pp	8r	[
==	==	==	==	==	==	==	==
*-	*-	*-	*-	*-	*-	*-	*-
!!!CDT: 1881/03/25-1945/09/26
!!!CBL: Sînnicolau Mare (Nagyszentmiklós), Romania (Hungary)
!!!CDL: New York, United States
!!!CNT: Hungarian
!!!AGN: Instrumental; Chamber
!!!MCN:
!!!MDT: 1929/03/20
!!!MGN: Waldbauer-Kerpely Quartet
!!!MLC: Budapest, Hungary
!!!MPD: 1929
!!!MPN: Kerpely, Jenö; Molnár, Antal; Temesváry, János; Waldbauer, Imre
!!!ODT: 1928 (rev. 1935)
!!!PDT: 1929
!!!excerpt-start-measure: 14
!!!excerpt-end-measure: 24
!!!excerpt-start-time: 0:35
!!!excerpt-end-time: 1:00
!!!EEV: 2020/01/17
!!!system-decoration: [(s1,s2,s3,s4)]
!!!ONB: Converted from MusicXML on 2020/01/17
